dist/svg/tree-fence-fill.svg

<svg xmlns="http://www.w3.org/2000/svg" viewBox="0 0 24 24"><path d="M16.68 3.279c-.733.101-1.337.45-2.018 1.167-.924.972-1.719 2.539-2.149 4.234-.384 1.517-.343 2.605.135 3.56.223.446.777 1.019 1.252 1.295.566.33 1.24.549 1.95.635l.39.048v4.022h-3.48v-2.48h.15c.443-.001.754-.243.83-.645.053-.286-.122-.642-.384-.777a1.3 1.3 0 0 0-.355-.084l-.241-.025v-.645c0-.705-.031-.88-.186-1.064-.149-.177-.321-.253-.574-.253s-.425.076-.574.253c-.155.185-.186.359-.186 1.07v.65H8.76v-.65c0-.711-.031-.885-.186-1.07-.149-.177-.321-.253-.574-.253s-.425.076-.574.253c-.155.185-.186.359-.186 1.07v.65H4.76v-.65c0-.711-.031-.885-.186-1.07-.149-.177-.321-.253-.574-.253s-.425.076-.574.253c-.155.184-.186.359-.186 1.064v.645l-.241.025a1.3 1.3 0 0 0-.355.084c-.262.135-.437.491-.384.777.076.402.387.644.83.645h.15v2.469l-.241.025c-.284.03-.431.098-.573.266-.344.409-.146 1.056.365 1.198.217.06 18.211.058 18.428-.003a.84.84 0 0 0 .306-.191.739.739 0 0 0-.348-1.246c-.086-.02-.89-.037-1.787-.037l-1.63-.001v-4.022l.39-.048a5.1 5.1 0 0 0 1.95-.635c.475-.276 1.029-.849 1.252-1.295.222-.443.319-.795.375-1.36.145-1.458-.597-3.906-1.679-5.541-.358-.54-.966-1.208-1.349-1.481-.647-.462-1.37-.669-2.019-.579m-1.413 5.524c.171.064.282.185 1.02 1.107.374.467.695.85.713.85s.339-.383.713-.85.731-.898.793-.957c.417-.394 1.1-.165 1.221.41.04.193.036.238-.035.397-.045.099-.497.7-1.006 1.335l-.926 1.155V14h-1.52v-1.75l-.926-1.155c-.509-.635-.961-1.236-1.006-1.335-.202-.451.167-.994.679-.998a1 1 0 0 1 .28.041M7.24 17v1.24H4.76v-2.48h2.48zm4 0v1.24H8.76v-2.48h2.48z" fill-rule="evenodd"/></svg>

<svg fill="none" xmlns="http://www.w3.org/2000/svg" viewBox="0 0 24 24"><path d="M16.680 3.279 C 15.947 3.380,15.343 3.729,14.662 4.446 C 13.738 5.418,12.943 6.985,12.513 8.680 C 12.129 10.197,12.170 11.285,12.648 12.240 C 12.871 12.686,13.425 13.259,13.900 13.535 C 14.466 13.865,15.140 14.084,15.850 14.170 L 16.240 14.218 16.240 16.229 L 16.240 18.240 14.500 18.240 L 12.760 18.240 12.760 17.000 L 12.760 15.760 12.910 15.760 C 13.353 15.759,13.664 15.517,13.740 15.115 C 13.793 14.829,13.618 14.473,13.356 14.338 C 13.293 14.306,13.134 14.268,13.001 14.254 L 12.760 14.229 12.760 13.584 C 12.760 12.879,12.729 12.704,12.574 12.520 C 12.425 12.343,12.253 12.267,12.000 12.267 C 11.747 12.267,11.575 12.343,11.426 12.520 C 11.271 12.705,11.240 12.879,11.240 13.590 L 11.240 14.240 10.000 14.240 L 8.760 14.240 8.760 13.590 C 8.760 12.879,8.729 12.705,8.574 12.520 C 8.425 12.343,8.253 12.267,8.000 12.267 C 7.747 12.267,7.575 12.343,7.426 12.520 C 7.271 12.705,7.240 12.879,7.240 13.590 L 7.240 14.240 6.000 14.240 L 4.760 14.240 4.760 13.590 C 4.760 12.879,4.729 12.705,4.574 12.520 C 4.425 12.343,4.253 12.267,4.000 12.267 C 3.747 12.267,3.575 12.343,3.426 12.520 C 3.271 12.704,3.240 12.879,3.240 13.584 L 3.240 14.229 2.999 14.254 C 2.866 14.268,2.707 14.306,2.644 14.338 C 2.382 14.473,2.207 14.829,2.260 15.115 C 2.336 15.517,2.647 15.759,3.090 15.760 L 3.240 15.760 3.240 16.994 L 3.240 18.229 2.999 18.254 C 2.715 18.284,2.568 18.352,2.426 18.520 C 2.082 18.929,2.280 19.576,2.791 19.718 C 3.008 19.778,21.002 19.776,21.219 19.715 C 21.307 19.691,21.444 19.605,21.525 19.524 C 21.938 19.111,21.742 18.409,21.177 18.278 C 21.091 18.258,20.287 18.241,19.390 18.241 L 17.760 18.240 17.760 16.229 L 17.760 14.218 18.150 14.170 C 18.860 14.084,19.534 13.865,20.100 13.535 C 20.575 13.259,21.129 12.686,21.352 12.240 C 21.574 11.797,21.671 11.445,21.727 10.880 C 21.872 9.422,21.130 6.974,20.048 5.339 C 19.690 4.799,19.082 4.131,18.699 3.858 C 18.052 3.396,17.329 3.189,16.680 3.279 M15.267 8.803 C 15.438 8.867,15.549 8.988,16.287 9.910 C 16.661 10.377,16.982 10.760,17.000 10.760 C 17.018 10.760,17.339 10.377,17.713 9.910 C 18.087 9.443,18.444 9.012,18.506 8.953 C 18.923 8.559,19.606 8.788,19.727 9.363 C 19.767 9.556,19.763 9.601,19.692 9.760 C 19.647 9.859,19.195 10.460,18.686 11.095 L 17.760 12.250 17.760 13.125 L 17.760 14.000 17.000 14.000 L 16.240 14.000 16.240 13.125 L 16.240 12.250 15.314 11.095 C 14.805 10.460,14.353 9.859,14.308 9.760 C 14.106 9.309,14.475 8.766,14.987 8.762 C 15.079 8.761,15.205 8.779,15.267 8.803 M7.240 17.000 L 7.240 18.240 6.000 18.240 L 4.760 18.240 4.760 17.000 L 4.760 15.760 6.000 15.760 L 7.240 15.760 7.240 17.000 M11.240 17.000 L 11.240 18.240 10.000 18.240 L 8.760 18.240 8.760 17.000 L 8.760 15.760 10.000 15.760 L 11.240 15.760 11.240 17.000 " stroke="none" fill-rule="evenodd" fill="currentColor"/></svg>
